X:73
T:Dowd's Favourite
Z: id:dc-reel-67
M:C
L:1/8
K:G Dorian
F|DGGA BABF|DFF2 DFCF|DGGA BABd|cAfA AGG:|!
A|B2dB fBdB|B2dB cAFA|B2dB fBdB|cAFA BGGA|!
B2dB fBdB|B2dB cAFA|BAGF Ggge|fdcA BGG|]!
z|gdd2 g2ag|fcc2 fcAc|gdd2 g2ag|fdcA BGG2|!
gdd2 g2ag|fcc2 fcAF|GABc dgge|fdcA BGG|]!

